X:2
T:Munster Buttermilk
D:Mick O'Brien & Caoimhín Ó Raghallaigh: Kitty Lie Over (2003)
R:Jig
M:6/8
K:D
| d2f edB | BAF FEF | AFD DFA | BAF EFA |
  d2f edB | BAF FEF | AFD DEF | EDD D2D |
  d2f edB | BAF FEF | AAA DFA | BAF EFA |
  d2f edB | BAF FEF | AFD DEF | EDD d2B
|: AFA d2e | f/g/af fed | gge edB | def edB |
   AFA d2e | f/g/af fed | edB def |1 edd d2B :|2 edd ABc |

